!!! Melody In F
**kern
*clefG2
*M4/4
*k[]
*C:
2g
4f#
4g
=1
2g
4f#
4g
=2
2cc
4b
4cc
=3
2.gg
4r
=4
2ff
4ee
4dd
=5
2ee
2dd
=6
2cc
4b
4a
=7
2b
2a
=8
2g
4f#
4g
=9
2g
4f#
4g
=10
2cc
4b
4cc
=11
2aa
2gg
=12
2ff
4cc#
4dd
=13
2ee
2dd
=14
1cc
=15
2.cc
4r
*-
